src/xmb/monochrome/Sharp - MZ-2200-content.svg

<svg xmlns="http://www.w3.org/2000/svg" xml:space="preserve" viewBox="0 0 64 64"><style>.st0{fill:#fff}</style><g id="tap"><path d="M17 25v8h30v-8zm4 7c-1.65 0-3-1.35-3-3s1.35-3 3-3 3 1.35 3 3-1.35 3-3 3m17-1c0 .55-.45 1-1 1H27c-.55 0-1-.45-1-1v-4c0-.55.45-1 1-1h10c.55 0 1 .45 1 1zm5 1c-1.65 0-3-1.35-3-3s1.35-3 3-3 3 1.35 3 3-1.35 3-3 3" class="st0"/><path d="M57 15H7c-1.11 0-2 .89-2 2v30c0 1.11.89 2 2 2h6l1-5s0-2 2-2h32c2 0 2 2 2 2l1 5h6c1.11 0 2-.89 2-2V17c0-1.11-.89-2-2-2M6.51 48c-.28 0-.51-.23-.51-.51s.23-.51.51-.51.51.23.51.51c-.01.28-.25.51-.51.51m0-31c-.28 0-.51-.23-.51-.51 0-.26.23-.49.51-.49s.51.23.51.51c-.02.26-.25.49-.51.49M56 36c0 1.11-.89 2-2 2H10c-1.11 0-2-.89-2-2V20c0-1.11.89-2 2-2h44c1.11 0 2 .89 2 2zm1.51 12c-.28 0-.51-.23-.51-.51s.23-.51.51-.51.51.23.51.51c-.01.28-.25.51-.51.51m0-31c-.28 0-.51-.23-.51-.51s.23-.51.51-.51.51.23.51.51c-.02.28-.25.51-.51.51" class="st0"/><path d="M54 19H10c-.55 0-1 .45-1 1v16c0 .55.45 1 1 1h44c.55 0 1-.45 1-1V20c0-.55-.45-1-1-1m-6 15H16V24h32zm1 10s0-1-1-1H16c-1 0-1 1-1 1l-1 5h36zm-30 4c-.55 0-1-.45-1-1s.45-1 1-1 1 .45 1 1-.45 1-1 1m5-1c-.55 0-1-.45-1-1s.45-1 1-1 1 .45 1 1-.45 1-1 1m8-1c-.55 0-1-.45-1-1s.45-1 1-1 1 .45 1 1-.45 1-1 1m8 1c-.55 0-1-.45-1-1s.45-1 1-1 1 .45 1 1-.45 1-1 1m5 1c-.55 0-1-.45-1-1s.45-1 1-1 1 .45 1 1-.45 1-1 1" class="st0"/></g></svg>

<?xml version="1.0" encoding="utf-8"?>
<svg version="1.1" xmlns="http://www.w3.org/2000/svg" xmlns:xlink="http://www.w3.org/1999/xlink" x="0px" y="0px" viewBox="0 0 64 64" style="enable-background:new 0 0 64 64;" xml:space="preserve">
<style type="text/css">
	.st0{fill:#FFFFFF;}
</style>
<g id="tap">
	<path class="st0" d="M17,25v8h30v-8H17z M21,32c-1.65,0-3-1.35-3-3s1.35-3,3-3s3,1.35,3,3C24,30.65,22.65,32,21,32z M38,31c0,0.55-0.45,1-1,1H27c-0.55,0-1-0.45-1-1v-4c0-0.55,0.45-1,1-1h10c0.55,0,1,0.45,1,1V31z M43,32c-1.65,0-3-1.35-3-3s1.35-3,3-3s3,1.35,3,3C46,30.65,44.65,32,43,32z"/>
	<path class="st0" d="M57,15H7c-1.11,0-2,0.89-2,2v30c0,1.11,0.89,2,2,2h6l1-5c0,0,0-2,2-2h32c2,0,2,2,2,2l1,5h6c1.11,0,2-0.89,2-2V17C59,15.89,58.11,15,57,15z M6.51,48C6.23,48,6,47.77,6,47.49s0.23-0.51,0.51-0.51s0.51,0.23,0.51,0.51C7.01,47.77,6.77,48,6.51,48z M6.51,17C6.23,17,6,16.77,6,16.49C6,16.23,6.23,16,6.51,16s0.51,0.23,0.51,0.51C7,16.77,6.77,17,6.51,17z M56,36c0,1.11-0.89,2-2,2H10c-1.11,0-2-0.89-2-2V20c0-1.11,0.89-2,2-2h44c1.11,0,2,0.89,2,2V36z M57.51,48C57.23,48,57,47.77,57,47.49s0.23-0.51,0.51-0.51s0.51,0.23,0.51,0.51C58.01,47.77,57.77,48,57.51,48z M57.51,17C57.23,17,57,16.77,57,16.49s0.23-0.51,0.51-0.51s0.51,0.23,0.51,0.51C58,16.77,57.77,17,57.51,17z"/>
	<path class="st0" d="M54,19H10c-0.55,0-1,0.45-1,1v16c0,0.55,0.45,1,1,1h44c0.55,0,1-0.45,1-1V20C55,19.45,54.55,19,54,19z M48,34H16V24h32V34z"/>
	<path class="st0" d="M49,44c0,0,0-1-1-1H16c-1,0-1,1-1,1l-1,5h36L49,44z M19,48c-0.55,0-1-0.45-1-1s0.45-1,1-1s1,0.45,1,1S19.55,48,19,48z M24,47c-0.55,0-1-0.45-1-1s0.45-1,1-1s1,0.45,1,1S24.55,47,24,47z M32,46c-0.55,0-1-0.45-1-1s0.45-1,1-1s1,0.45,1,1S32.55,46,32,46z M40,47c-0.55,0-1-0.45-1-1s0.45-1,1-1s1,0.45,1,1S40.55,47,40,47z M45,48c-0.55,0-1-0.45-1-1s0.45-1,1-1s1,0.45,1,1S45.55,48,45,48z"/>
</g>
</svg>
